X: 3355
M: C
L: 1/8
K: C
(ef) |\
gece dBGB | cBcA G2(EF) |\
gece dBGB | cBcA G2(cB) |\
|: (Bc) |\
defd BGAB | cBcd e2(de) |\
fgag fedc | B2d2 d2(ef) |\
gece dBGB | cBcA G2(cB) |\


